X: 4700
T: Boys In The Bunker, The
R: polka
M: 2/4
K: Eminor
|:EB BA|FG AF|GA Bc|BA GF|
EB BA|FG AB/^c/|dB AF|1 GF GF:|2 GF ED||
|:BG GB|AF FA|GA Bc|BA GB/^c/|
d2 AG|FD EF|GB AF|1 GF ED:|2 GF GF||

